src/icons/rubric.svg

<svg xmlns="http://www.w3.org/2000/svg" width="24" height="24" fill="none"><path fill="currentColor" d="M17 9h-7v2h7zM7 9h2v2H7zm10 4h-7v2h7zM7 13h2v2H7zm10 4h-7v2h7zM7 17h2v2H7z"/><path fill="currentColor" fill-rule="evenodd" d="M7 3a2 2 0 0 1 2-2h6a2 2 0 0 1 2 2h4v20H3V3zm2 0h6v2H9zM7 5H5v16h14V5h-2v2H7z" clip-rule="evenodd"/></svg>

<svg width="24" height="24" viewBox="0 0 24 24" fill="none" xmlns="http://www.w3.org/2000/svg">
<path d="M17 9H10V11H17V9Z" fill="black"/>
<path d="M7 9H9V11H7V9Z" fill="black"/>
<path d="M17 13H10V15H17V13Z" fill="black"/>
<path d="M7 13H9V15H7V13Z" fill="black"/>
<path d="M17 17H10V19H17V17Z" fill="black"/>
<path d="M7 17H9V19H7V17Z" fill="black"/>
<path fill-rule="evenodd" clip-rule="evenodd" d="M7 3C7 1.89543 7.89543 1 9 1H15C16.1046 1 17 1.89543 17 3H21V23H3V3L7 3ZM9 3H15V5H9V3ZM7 5H5V21H19V5H17V7H7V5Z" fill="black"/>
</svg>
